icons/night/scala.svg

<svg xmlns="http://www.w3.org/2000/svg" fill="none" viewBox="0 0 16 16"><g clip-path="url(#a)"><path
      fill="#db4b4b"
      d="M4 5.938V2.895c.304-.107.623-.138.938-.182 1.389-.194 2.781-.36 4.16-.619.704-.133 1.407-.277 2.081-.533.316-.123.626-.257.821-.561v2.99a.615.615 0 0 1-.207.275c-.08.06-.161.117-.242.174a.58.58 0 0 0-.087.027c-.333.165-.687.267-1.042.362-.946.251-1.909.41-2.875.55-.966.138-1.933.267-2.898.407-.219.032-.445.049-.649.153ZM12 9.062v3.016c-.092.22-.276.338-.474.439-.348.177-.72.293-1.096.39-1.517.395-3.07.583-4.617.801-.606.085-1.218.138-1.813.294v-3.018c.132-.066.275-.087.417-.107.887-.127 1.773-.253 2.66-.377.08-.04.164-.018.246-.03.678-.105 1.357-.206 2.03-.344.678-.139 1.355-.282 1.996-.556.26-.111.509-.241.651-.508ZM4 9.97V6.925c.474-.124.96-.173 1.443-.24.558-.078 1.116-.156 1.673-.232.048-.005.096-.007.144-.015.54-.087 1.08-.167 1.619-.263.758-.136 1.516-.286 2.242-.555.336-.124.678-.252.879-.59v3.043c-.116.173-.278.31-.466.397-.328.175-.68.282-1.036.378-.902.244-1.82.397-2.742.54-.942.145-1.888.26-2.831.398-.31.045-.627.068-.925.182Z"
    /><path
      fill="#914c54"
      d="M12 5.03c-.201.338-.543.466-.88.59-.725.27-1.483.419-2.241.555-.538.097-1.079.177-1.62.263-.047.008-.095.01-.143.015-.042-.01-.084-.023-.127-.029-.61-.083-1.222-.16-1.831-.248-.389-.056-.781-.09-1.158-.21v-.028c.204-.104.43-.12.649-.153.965-.14 1.932-.268 2.898-.407.965-.14 1.93-.298 2.874-.549.356-.094.71-.197 1.042-.362a.58.58 0 0 1 .087-.027c.193.097.366.217.45.43v.16ZM4 9.97c.298-.115.614-.138.925-.183.943-.138 1.889-.253 2.831-.398.921-.143 1.84-.296 2.742-.54.355-.096.708-.203 1.036-.378.197.097.371.22.466.43v.16c-.142.268-.391.398-.651.508-.641.274-1.319.417-1.996.556-.673.138-1.352.239-2.03.343-.082.013-.168-.01-.246.031-.011-.034-.042-.024-.065-.026-.762-.107-1.524-.209-2.285-.319-.245-.035-.496-.054-.727-.158v-.027Z"
    /></g><defs><clipPath id="a"><path fill="#fff" d="M4 1h8v13H4z" /></clipPath></defs></svg>

<svg width="16" height="16" viewBox="0 0 16 16" fill="none" xmlns="http://www.w3.org/2000/svg">
<path d="M4 5.938V2.895C4.304 2.788 4.623 2.757 4.938 2.713C6.327 2.519 7.719 2.353 9.098 2.094C9.802 1.961 10.505 1.817 11.179 1.561C11.495 1.438 11.805 1.304 12 1V3.99C11.9586 4.0995 11.8868 4.1949 11.793 4.265C11.713 4.325 11.632 4.382 11.551 4.439C11.5213 4.44571 11.4922 4.45473 11.464 4.466C11.131 4.631 10.777 4.733 10.422 4.828C9.476 5.079 8.513 5.238 7.547 5.378C6.581 5.516 5.614 5.645 4.649 5.785C4.43 5.817 4.204 5.834 4 5.938ZM12 9.062V12.078C11.908 12.298 11.724 12.416 11.526 12.517C11.178 12.694 10.806 12.81 10.43 12.907C8.913 13.302 7.36 13.49 5.813 13.708C5.207 13.793 4.595 13.846 4 14.002V10.984C4.132 10.918 4.275 10.897 4.417 10.877C5.304 10.75 6.19 10.624 7.077 10.5C7.157 10.46 7.241 10.482 7.323 10.47C8.001 10.365 8.68 10.264 9.353 10.126C10.031 9.987 10.708 9.844 11.349 9.57C11.609 9.459 11.858 9.329 12 9.062ZM4 9.97V6.925C4.474 6.801 4.96 6.752 5.443 6.685C6.001 6.607 6.559 6.529 7.116 6.453C7.164 6.448 7.212 6.446 7.26 6.438C7.8 6.351 8.34 6.271 8.879 6.175C9.637 6.039 10.395 5.889 11.121 5.62C11.457 5.496 11.799 5.368 12 5.03V8.073C11.884 8.246 11.722 8.383 11.534 8.47C11.206 8.645 10.854 8.752 10.498 8.848C9.596 9.092 8.678 9.245 7.756 9.388C6.814 9.533 5.868 9.648 4.925 9.786C4.615 9.831 4.298 9.854 4 9.968V9.97Z" fill="#DB4B4B"/>
<path d="M12 5.03C11.799 5.368 11.457 5.496 11.12 5.62C10.395 5.89 9.637 6.039 8.879 6.175C8.341 6.272 7.8 6.352 7.259 6.438C7.212 6.446 7.164 6.448 7.116 6.453C7.074 6.443 7.032 6.43 6.989 6.424C6.379 6.341 5.767 6.264 5.158 6.176C4.769 6.12 4.377 6.086 4 5.966V5.938C4.204 5.834 4.43 5.817 4.649 5.785C5.614 5.645 6.581 5.517 7.547 5.378C8.512 5.238 9.477 5.08 10.421 4.829C10.777 4.735 11.131 4.632 11.463 4.467C11.4912 4.45574 11.5203 4.44671 11.55 4.44C11.743 4.537 11.916 4.657 12 4.87V5.03ZM4 9.97C4.298 9.855 4.614 9.832 4.925 9.787C5.868 9.649 6.814 9.534 7.756 9.389C8.677 9.246 9.596 9.093 10.498 8.849C10.853 8.753 11.206 8.646 11.534 8.471C11.731 8.568 11.905 8.691 12 8.901V9.062C11.858 9.33 11.609 9.46 11.349 9.57C10.708 9.844 10.031 9.987 9.353 10.126C8.68 10.264 8.001 10.364 7.323 10.468C7.241 10.481 7.155 10.459 7.077 10.5C7.066 10.466 7.035 10.475 7.012 10.473C6.25 10.366 5.488 10.264 4.727 10.154C4.482 10.119 4.231 10.1 4 9.996V9.97Z" fill="#914C54"/>
</svg>
